editor/scripts/filters/tests/fixtures/sample.cube
TITLE "Sample"
DOMAIN_MIN 0.0 0.0 0.0
DOMAIN_MAX 1.0 1.0 1.0
LUT_3D_SIZE 9
0.000000 0.000000 0.000000
0.148938 0.007517 0.007517
0.297876 0.015033 0.015033
0.446814 0.022550 0.022550
0.595752 0.030066 0.030066
0.744689 0.037583 0.037583
0.842520 0.042520 0.042520
0.842520 0.042520 0.042520
0.842520 0.042520 0.042520
0.025286 0.166707 0.025286
0.174224 0.174224 0.032803
0.323162 0.181741 0.040319
0.472100 0.189257 0.047836
0.621038 0.196774 0.055352
0.769976 0.204290 0.062869
0.867806 0.209227 0.067806
0.867806 0.209227 0.067806
0.867806 0.209227 0.067806
0.050572 0.333415 0.050572
0.199510 0.340932 0.058089
0.348448 0.348448 0.065605
0.497386 0.355965 0.073122
0.646324 0.363481 0.080638
0.795262 0.370998 0.088155
0.893092 0.375935 0.093092
0.893092 0.375935 0.093092
0.893092 0.375935 0.093092
0.075858 0.500122 0.075858
0.224796 0.507639 0.083375
0.373734 0.515156 0.090892
0.522672 0.522672 0.098408
0.671610 0.530189 0.105925
0.820548 0.537705 0.113441
0.918378 0.542642 0.118378
0.918378 0.542642 0.118378
0.918378 0.542642 0.118378
0.101145 0.666830 0.101145
0.250082 0.674347 0.108661
0.399020 0.681863 0.116178
0.547958 0.689380 0.123694
0.696896 0.696896 0.131211
0.845834 0.704413 0.138727
0.943665 0.709350 0.143665
0.943665 0.709350 0.143665
0.943665 0.709350 0.143665
0.126431 0.833537 0.126431
0.275369 0.841054 0.133947
0.424306 0.848571 0.141464
0.573244 0.856087 0.148980
0.722182 0.863604 0.156497
0.871120 0.871120 0.164013
0.968951 0.876057 0.168951
0.968951 0.876057 0.168951
0.968951 0.876057 0.168951
0.143040 0.943040 0.143040
0.291978 0.950557 0.150557
0.440916 0.958073 0.158073
0.589854 0.965590 0.165590
0.738792 0.973106 0.173106
0.887730 0.980623 0.180623
0.985560 0.985560 0.185560
0.985560 0.985560 0.185560
0.985560 0.985560 0.185560
0.143040 0.943040 0.143040
0.291978 0.950557 0.150557
0.440916 0.958073 0.158073
0.589854 0.965590 0.165590
0.738792 0.973106 0.173106
0.887730 0.980623 0.180623
0.985560 0.985560 0.185560
0.985560 0.985560 0.185560
0.985560 0.985560 0.185560
0.143040 0.943040 0.143040
0.291978 0.950557 0.150557
0.440916 0.958073 0.158073
0.589854 0.965590 0.165590
0.738792 0.973106 0.173106
0.887730 0.980623 0.180623
0.985560 0.985560 0.185560
0.985560 0.985560 0.185560
0.985560 0.985560 0.185560
0.002553 0.002553 0.143974
0.151491 0.010069 0.151491
0.300428 0.017586 0.159007
0.449366 0.025102 0.166524
0.598304 0.032619 0.174040
0.747242 0.040135 0.181557
0.845073 0.045073 0.186494
0.845073 0.045073 0.186494
0.845073 0.045073 0.186494
0.027839 0.169260 0.169260
0.176777 0.176777 0.176777
0.325715 0.184293 0.184293
0.474652 0.191810 0.191810
0.623590 0.199326 0.199326
0.772528 0.206843 0.206843
0.870359 0.211780 0.211780
0.870359 0.211780 0.211780
0.870359 0.211780 0.211780
0.053125 0.335968 0.194546
0.202063 0.343484 0.202063
0.351001 0.351001 0.209579
0.499939 0.358517 0.217096
0.648877 0.366034 0.224612
0.797814 0.373550 0.232129
0.895645 0.378488 0.237066
0.895645 0.378488 0.237066
0.895645 0.378488 0.237066
0.078411 0.502675 0.219832
0.227349 0.510192 0.227349
0.376287 0.517708 0.234866
0.525225 0.525225 0.242382
0.674163 0.532741 0.249899
0.823101 0.540258 0.257415
0.920931 0.545195 0.262352
0.920931 0.545195 0.262352
0.920931 0.545195 0.262352
0.103697 0.669383 0.245119
0.252635 0.676899 0.252635
0.401573 0.684416 0.260152
0.550511 0.691932 0.267668
0.699449 0.699449 0.275185
0.848387 0.706965 0.282701
0.946217 0.711903 0.287639
0.946217 0.711903 0.287639
0.946217 0.711903 0.287639
0.128983 0.836090 0.270405
0.277921 0.843607 0.277921
0.426859 0.851123 0.285438
0.575797 0.858640 0.292954
0.724735 0.866156 0.300471
0.873673 0.873673 0.307987
0.971503 0.878610 0.312925
0.971503 0.878610 0.312925
0.971503 0.878610 0.312925
0.145593 0.945593 0.287014
0.294531 0.953109 0.294531
0.443468 0.960626 0.302047
0.592406 0.968142 0.309564
0.741344 0.975659 0.317080
0.890282 0.983175 0.324597
0.988113 0.988113 0.329534
0.988113 0.988113 0.329534
0.988113 0.988113 0.329534
0.145593 0.945593 0.287014
0.294531 0.953109 0.294531
0.443468 0.960626 0.302047
0.592406 0.968142 0.309564
0.741344 0.975659 0.317080
0.890282 0.983175 0.324597
0.988113 0.988113 0.329534
0.988113 0.988113 0.329534
0.988113 0.988113 0.329534
0.145593 0.945593 0.287014
0.294531 0.953109 0.294531
0.443468 0.960626 0.302047
0.592406 0.968142 0.309564
0.741344 0.975659 0.317080
0.890282 0.983175 0.324597
0.988113 0.988113 0.329534
0.988113 0.988113 0.329534
0.988113 0.988113 0.329534
0.005105 0.005105 0.287948
0.154043 0.012622 0.295465
0.302981 0.020138 0.302981
0.451919 0.027655 0.310498
0.600857 0.035171 0.318014
0.749795 0.042688 0.325531
0.847625 0.047625 0.330468
0.847625 0.047625 0.330468
0.847625 0.047625 0.330468
0.030391 0.171813 0.313234
0.179329 0.179329 0.320751
0.328267 0.186846 0.328267
0.477205 0.194362 0.335784
0.626143 0.201879 0.343300
0.775081 0.209396 0.350817
0.872911 0.214333 0.355754
0.872911 0.214333 0.355754
0.872911 0.214333 0.355754
0.055678 0.338520 0.338520
0.204615 0.346037 0.346037
0.353553 0.353553 0.353553
0.502491 0.361070 0.361070
0.651429 0.368586 0.368586
0.800367 0.376103 0.376103
0.898198 0.381040 0.381040
0.898198 0.381040 0.381040
0.898198 0.381040 0.381040
0.080964 0.505228 0.363806
0.229902 0.512744 0.371323
0.378840 0.520261 0.378840
0.527777 0.527777 0.386356
0.676715 0.535294 0.393873
0.825653 0.542810 0.401389
0.923484 0.547748 0.406326
0.923484 0.547748 0.406326
0.923484 0.547748 0.406326
0.106250 0.671935 0.389093
0.255188 0.679452 0.396609
0.404126 0.686968 0.404126
0.553064 0.694485 0.411642
0.702001 0.702001 0.419159
0.850939 0.709518 0.426675
0.948770 0.714455 0.431613
0.948770 0.714455 0.431613
0.948770 0.714455 0.431613
0.131536 0.838643 0.414379
0.280474 0.846159 0.421895
0.429412 0.853676 0.429412
0.578350 0.861192 0.436928
0.727288 0.868709 0.444445
0.876226 0.876226 0.451961
0.974056 0.881163 0.456899
0.974056 0.881163 0.456899
0.974056 0.881163 0.456899
0.148145 0.948145 0.430988
0.297083 0.955662 0.438505
0.446021 0.963178 0.446021
0.594959 0.970695 0.453538
0.743897 0.978212 0.461054
0.892835 0.985728 0.468571
0.990665 0.990665 0.473508
0.990665 0.990665 0.473508
0.990665 0.990665 0.473508
0.148145 0.948145 0.430988
0.297083 0.955662 0.438505
0.446021 0.963178 0.446021
0.594959 0.970695 0.453538
0.743897 0.978212 0.461054
0.892835 0.985728 0.468571
0.990665 0.990665 0.473508
0.990665 0.990665 0.473508
0.990665 0.990665 0.473508
0.148145 0.948145 0.430988
0.297083 0.955662 0.438505
0.446021 0.963178 0.446021
0.594959 0.970695 0.453538
0.743897 0.978212 0.461054
0.892835 0.985728 0.468571
0.990665 0.990665 0.473508
0.990665 0.990665 0.473508
0.990665 0.990665 0.473508
0.007658 0.007658 0.431922
0.156596 0.015175 0.439439
0.305534 0.022691 0.446955
0.454472 0.030208 0.454472
0.603410 0.037724 0.461988
0.752347 0.045241 0.469505
0.850178 0.050178 0.474442
0.850178 0.050178 0.474442
0.850178 0.050178 0.474442
0.032944 0.174365 0.457208
0.181882 0.181882 0.464725
0.330820 0.189399 0.472241
0.479758 0.196915 0.479758
0.628696 0.204432 0.487274
0.777634 0.211948 0.494791
0.875464 0.216885 0.499728
0.875464 0.216885 0.499728
0.875464 0.216885 0.499728
0.058230 0.341073 0.482494
0.207168 0.348589 0.490011
0.356106 0.356106 0.497527
0.505044 0.363623 0.505044
0.653982 0.371139 0.512560
0.802920 0.378656 0.520077
0.900750 0.383593 0.525014
0.900750 0.383593 0.525014
0.900750 0.383593 0.525014
0.083516 0.507780 0.507780
0.232454 0.515297 0.515297
0.381392 0.522813 0.522813
0.530330 0.530330 0.530330
0.679268 0.537847 0.537847
0.828206 0.545363 0.545363
0.926036 0.550300 0.550300
0.926036 0.550300 0.550300
0.926036 0.550300 0.550300
0.108803 0.674488 0.533067
0.257740 0.682005 0.540583
0.406678 0.689521 0.548100
0.555616 0.697038 0.555616
0.704554 0.704554 0.563133
0.853492 0.712071 0.570649
0.951323 0.717008 0.575587
0.951323 0.717008 0.575587
0.951323 0.717008 0.575587
0.134089 0.841195 0.558353
0.283027 0.848712 0.565869
0.431964 0.856229 0.573386
0.580902 0.863745 0.580902
0.729840 0.871262 0.588419
0.878778 0.878778 0.595935
0.976609 0.883715 0.600873
0.976609 0.883715 0.600873
0.976609 0.883715 0.600873
0.150698 0.950698 0.574962
0.299636 0.958215 0.582479
0.448574 0.965731 0.589995
0.597512 0.973248 0.597512
0.746450 0.980764 0.605028
0.895387 0.988281 0.612545
0.993218 0.993218 0.617482
0.993218 0.993218 0.617482
0.993218 0.993218 0.617482
0.150698 0.950698 0.574962
0.299636 0.958215 0.582479
0.448574 0.965731 0.589995
0.597512 0.973248 0.597512
0.746450 0.980764 0.605028
0.895387 0.988281 0.612545
0.993218 0.993218 0.617482
0.993218 0.993218 0.617482
0.993218 0.993218 0.617482
0.150698 0.950698 0.574962
0.299636 0.958215 0.582479
0.448574 0.965731 0.589995
0.597512 0.973248 0.597512
0.746450 0.980764 0.605028
0.895387 0.988281 0.612545
0.993218 0.993218 0.617482
0.993218 0.993218 0.617482
0.993218 0.993218 0.617482
0.010211 0.010211 0.575896
0.159149 0.017727 0.583413
0.308086 0.025244 0.590929
0.457024 0.032760 0.598446
0.605962 0.040277 0.605962
0.754900 0.047793 0.613479
0.852731 0.052731 0.618416
0.852731 0.052731 0.618416
0.852731 0.052731 0.618416
0.035497 0.176918 0.601182
0.184435 0.184435 0.608699
0.333373 0.191951 0.616215
0.482310 0.199468 0.623732
0.631248 0.206984 0.631248
0.780186 0.214501 0.638765
0.878017 0.219438 0.643702
0.878017 0.219438 0.643702
0.878017 0.219438 0.643702
0.060783 0.343626 0.626468
0.209721 0.351142 0.633985
0.358659 0.358659 0.641501
0.507597 0.366175 0.649018
0.656534 0.373692 0.656534
0.805472 0.381208 0.664051
0.903303 0.386146 0.668988
0.903303 0.386146 0.668988
0.903303 0.386146 0.668988
0.086069 0.510333 0.651754
0.235007 0.517850 0.659271
0.383945 0.525366 0.666788
0.532883 0.532883 0.674304
0.681821 0.540399 0.681821
0.830759 0.547916 0.689337
0.928589 0.552853 0.694274
0.928589 0.552853 0.694274
0.928589 0.552853 0.694274
0.111355 0.677041 0.677041
0.260293 0.684557 0.684557
0.409231 0.692074 0.692074
0.558169 0.699590 0.699590
0.707107 0.707107 0.707107
0.856045 0.714623 0.714623
0.953875 0.719561 0.719561
0.953875 0.719561 0.719561
0.953875 0.719561 0.719561
0.136641 0.843748 0.702327
0.285579 0.851265 0.709843
0.434517 0.858781 0.717360
0.583455 0.866298 0.724876
0.732393 0.873814 0.732393
0.881331 0.881331 0.739909
0.979161 0.886268 0.744847
0.979161 0.886268 0.744847
0.979161 0.886268 0.744847
0.153251 0.953251 0.718936
0.302189 0.960767 0.726453
0.451126 0.968284 0.733969
0.600064 0.975800 0.741486
0.749002 0.983317 0.749002
0.897940 0.990833 0.756519
0.995771 0.995771 0.761456
0.995771 0.995771 0.761456
0.995771 0.995771 0.761456
0.153251 0.953251 0.718936
0.302189 0.960767 0.726453
0.451126 0.968284 0.733969
0.600064 0.975800 0.741486
0.749002 0.983317 0.749002
0.897940 0.990833 0.756519
0.995771 0.995771 0.761456
0.995771 0.995771 0.761456
0.995771 0.995771 0.761456
0.153251 0.953251 0.718936
0.302189 0.960767 0.726453
0.451126 0.968284 0.733969
0.600064 0.975800 0.741486
0.749002 0.983317 0.749002
0.897940 0.990833 0.756519
0.995771 0.995771 0.761456
0.995771 0.995771 0.761456
0.995771 0.995771 0.761456
0.012763 0.012763 0.719870
0.161701 0.020280 0.727387
0.310639 0.027796 0.734903
0.459577 0.035313 0.742420
0.608515 0.042829 0.749936
0.757453 0.050346 0.757453
0.855283 0.055283 0.762390
0.855283 0.055283 0.762390
0.855283 0.055283 0.762390
0.038049 0.179471 0.745156
0.186987 0.186987 0.752673
0.335925 0.194504 0.760189
0.484863 0.202020 0.767706
0.633801 0.209537 0.775222
0.782739 0.217053 0.782739
0.880569 0.221991 0.787676
0.880569 0.221991 0.787676
0.880569 0.221991 0.787676
0.063336 0.346178 0.770442
0.212273 0.353695 0.777959
0.361211 0.361211 0.785475
0.510149 0.368728 0.792992
0.659087 0.376244 0.800508
0.808025 0.383761 0.808025
0.905856 0.388698 0.812962
0.905856 0.388698 0.812962
0.905856 0.388698 0.812962
0.088622 0.512886 0.795728
0.237560 0.520402 0.803245
0.386497 0.527919 0.810762
0.535435 0.535435 0.818278
0.684373 0.542952 0.825795
0.833311 0.550468 0.833311
0.931142 0.555406 0.838248
0.931142 0.555406 0.838248
0.931142 0.555406 0.838248
0.113908 0.679593 0.821015
0.262846 0.687110 0.828531
0.411784 0.694626 0.836048
0.560722 0.702143 0.843564
0.709659 0.709659 0.851081
0.858597 0.717176 0.858597
0.956428 0.722113 0.863535
0.956428 0.722113 0.863535
0.956428 0.722113 0.863535
0.139194 0.846301 0.846301
0.288132 0.853817 0.853817
0.437070 0.861334 0.861334
0.586008 0.868850 0.868850
0.734946 0.876367 0.876367
0.883883 0.883883 0.883883
0.981714 0.888821 0.888821
0.981714 0.888821 0.888821
0.981714 0.888821 0.888821
0.155803 0.955803 0.862910
0.304741 0.963320 0.870427
0.453679 0.970836 0.877943
0.602617 0.978353 0.885460
0.751555 0.985869 0.892976
0.900493 0.993386 0.900493
0.998323 0.998323 0.905430
0.998323 0.998323 0.905430
0.998323 0.998323 0.905430
0.155803 0.955803 0.862910
0.304741 0.963320 0.870427
0.453679 0.970836 0.877943
0.602617 0.978353 0.885460
0.751555 0.985869 0.892976
0.900493 0.993386 0.900493
0.998323 0.998323 0.905430
0.998323 0.998323 0.905430
0.998323 0.998323 0.905430
0.155803 0.955803 0.862910
0.304741 0.963320 0.870427
0.453679 0.970836 0.877943
0.602617 0.978353 0.885460
0.751555 0.985869 0.892976
0.900493 0.993386 0.900493
0.998323 0.998323 0.905430
0.998323 0.998323 0.905430
0.998323 0.998323 0.905430
0.014440 0.014440 0.814440
0.163378 0.021957 0.821957
0.312316 0.029473 0.829473
0.461254 0.036990 0.836990
0.610192 0.044506 0.844506
0.759130 0.052023 0.852023
0.856960 0.056960 0.856960
0.856960 0.056960 0.856960
0.856960 0.056960 0.856960
0.039726 0.181147 0.839726
0.188664 0.188664 0.847243
0.337602 0.196181 0.854759
0.486540 0.203697 0.862276
0.635478 0.211214 0.869792
0.784416 0.218730 0.877309
0.882246 0.223667 0.882246
0.882246 0.223667 0.882246
0.882246 0.223667 0.882246
0.065012 0.347855 0.865012
0.213950 0.355372 0.872529
0.362888 0.362888 0.880045
0.511826 0.370405 0.887562
0.660764 0.377921 0.895078
0.809702 0.385438 0.902595
0.907532 0.390375 0.907532
0.907532 0.390375 0.907532
0.907532 0.390375 0.907532
0.090298 0.514562 0.890298
0.239236 0.522079 0.897815
0.388174 0.529596 0.905331
0.537112 0.537112 0.912848
0.686050 0.544629 0.920365
0.834988 0.552145 0.927881
0.932818 0.557082 0.932818
0.932818 0.557082 0.932818
0.932818 0.557082 0.932818
0.115585 0.681270 0.915585
0.264522 0.688787 0.923101
0.413460 0.696303 0.930618
0.562398 0.703820 0.938134
0.711336 0.711336 0.945651
0.860274 0.718853 0.953167
0.958105 0.723790 0.958105
0.958105 0.723790 0.958105
0.958105 0.723790 0.958105
0.140871 0.847977 0.940871
0.289809 0.855494 0.948387
0.438746 0.863011 0.955904
0.587684 0.870527 0.963420
0.736622 0.878044 0.970937
0.885560 0.885560 0.978453
0.983391 0.890497 0.983391
0.983391 0.890497 0.983391
0.983391 0.890497 0.983391
0.157480 0.957480 0.957480
0.306418 0.964997 0.964997
0.455356 0.972513 0.972513
0.604294 0.980030 0.980030
0.753232 0.987546 0.987546
0.902170 0.995063 0.995063
1.000000 1.000000 1.000000
1.000000 1.000000 1.000000
1.000000 1.000000 1.000000
0.157480 0.957480 0.957480
0.306418 0.964997 0.964997
0.455356 0.972513 0.972513
0.604294 0.980030 0.980030
0.753232 0.987546 0.987546
0.902170 0.995063 0.995063
1.000000 1.000000 1.000000
1.000000 1.000000 1.000000
1.000000 1.000000 1.000000
0.157480 0.957480 0.957480
0.306418 0.964997 0.964997
0.455356 0.972513 0.972513
0.604294 0.980030 0.980030
0.753232 0.987546 0.987546
0.902170 0.995063 0.995063
1.000000 1.000000 1.000000
1.000000 1.000000 1.000000
1.000000 1.000000 1.000000
0.014440 0.014440 0.814440
0.163378 0.021957 0.821957
0.312316 0.029473 0.829473
0.461254 0.036990 0.836990
0.610192 0.044506 0.844506
0.759130 0.052023 0.852023
0.856960 0.056960 0.856960
0.856960 0.056960 0.856960
0.856960 0.056960 0.856960
0.039726 0.181147 0.839726
0.188664 0.188664 0.847243
0.337602 0.196181 0.854759
0.486540 0.203697 0.862276
0.635478 0.211214 0.869792
0.784416 0.218730 0.877309
0.882246 0.223667 0.882246
0.882246 0.223667 0.882246
0.882246 0.223667 0.882246
0.065012 0.347855 0.865012
0.213950 0.355372 0.872529
0.362888 0.362888 0.880045
0.511826 0.370405 0.887562
0.660764 0.377921 0.895078
0.809702 0.385438 0.902595
0.907532 0.390375 0.907532
0.907532 0.390375 0.907532
0.907532 0.390375 0.907532
0.090298 0.514562 0.890298
0.239236 0.522079 0.897815
0.388174 0.529596 0.905331
0.537112 0.537112 0.912848
0.686050 0.544629 0.920365
0.834988 0.552145 0.927881
0.932818 0.557082 0.932818
0.932818 0.557082 0.932818
0.932818 0.557082 0.932818
0.115585 0.681270 0.915585
0.264522 0.688787 0.923101
0.413460 0.696303 0.930618
0.562398 0.703820 0.938134
0.711336 0.711336 0.945651
0.860274 0.718853 0.953167
0.958105 0.723790 0.958105
0.958105 0.723790 0.958105
0.958105 0.723790 0.958105
0.140871 0.847977 0.940871
0.289809 0.855494 0.948387
0.438746 0.863011 0.955904
0.587684 0.870527 0.963420
0.736622 0.878044 0.970937
0.885560 0.885560 0.978453
0.983391 0.890497 0.983391
0.983391 0.890497 0.983391
0.983391 0.890497 0.983391
0.157480 0.957480 0.957480
0.306418 0.964997 0.964997
0.455356 0.972513 0.972513
0.604294 0.980030 0.980030
0.753232 0.987546 0.987546
0.902170 0.995063 0.995063
1.000000 1.000000 1.000000
1.000000 1.000000 1.000000
1.000000 1.000000 1.000000
0.157480 0.957480 0.957480
0.306418 0.964997 0.964997
0.455356 0.972513 0.972513
0.604294 0.980030 0.980030
0.753232 0.987546 0.987546
0.902170 0.995063 0.995063
1.000000 1.000000 1.000000
1.000000 1.000000 1.000000
1.000000 1.000000 1.000000
0.157480 0.957480 0.957480
0.306418 0.964997 0.964997
0.455356 0.972513 0.972513
0.604294 0.980030 0.980030
0.753232 0.987546 0.987546
0.902170 0.995063 0.995063
1.000000 1.000000 1.000000
1.000000 1.000000 1.000000
1.000000 1.000000 1.000000
0.014440 0.014440 0.814440
0.163378 0.021957 0.821957
0.312316 0.029473 0.829473
0.461254 0.036990 0.836990
0.610192 0.044506 0.844506
0.759130 0.052023 0.852023
0.856960 0.056960 0.856960
0.856960 0.056960 0.856960
0.856960 0.056960 0.856960
0.039726 0.181147 0.839726
0.188664 0.188664 0.847243
0.337602 0.196181 0.854759
0.486540 0.203697 0.862276
0.635478 0.211214 0.869792
0.784416 0.218730 0.877309
0.882246 0.223667 0.882246
0.882246 0.223667 0.882246
0.882246 0.223667 0.882246
0.065012 0.347855 0.865012
0.213950 0.355372 0.872529
0.362888 0.362888 0.880045
0.511826 0.370405 0.887562
0.660764 0.377921 0.895078
0.809702 0.385438 0.902595
0.907532 0.390375 0.907532
0.907532 0.390375 0.907532
0.907532 0.390375 0.907532
0.090298 0.514562 0.890298
0.239236 0.522079 0.897815
0.388174 0.529596 0.905331
0.537112 0.537112 0.912848
0.686050 0.544629 0.920365
0.834988 0.552145 0.927881
0.932818 0.557082 0.932818
0.932818 0.557082 0.932818
0.932818 0.557082 0.932818
0.115585 0.681270 0.915585
0.264522 0.688787 0.923101
0.413460 0.696303 0.930618
0.562398 0.703820 0.938134
0.711336 0.711336 0.945651
0.860274 0.718853 0.953167
0.958105 0.723790 0.958105
0.958105 0.723790 0.958105
0.958105 0.723790 0.958105
0.140871 0.847977 0.940871
0.289809 0.855494 0.948387
0.438746 0.863011 0.955904
0.587684 0.870527 0.963420
0.736622 0.878044 0.970937
0.885560 0.885560 0.978453
0.983391 0.890497 0.983391
0.983391 0.890497 0.983391
0.983391 0.890497 0.983391
0.157480 0.957480 0.957480
0.306418 0.964997 0.964997
0.455356 0.972513 0.972513
0.604294 0.980030 0.980030
0.753232 0.987546 0.987546
0.902170 0.995063 0.995063
1.000000 1.000000 1.000000
1.000000 1.000000 1.000000
1.000000 1.000000 1.000000
0.157480 0.957480 0.957480
0.306418 0.964997 0.964997
0.455356 0.972513 0.972513
0.604294 0.980030 0.980030
0.753232 0.987546 0.987546
0.902170 0.995063 0.995063
1.000000 1.000000 1.000000
1.000000 1.000000 1.000000
1.000000 1.000000 1.000000
0.157480 0.957480 0.957480
0.306418 0.964997 0.964997
0.455356 0.972513 0.972513
0.604294 0.980030 0.980030
0.753232 0.987546 0.987546
0.902170 0.995063 0.995063
1.000000 1.000000 1.000000
1.000000 1.000000 1.000000
1.000000 1.000000 1.000000
