editor/scripts/filters/tests/fixtures/sample.cube
TITLE "Sample"
DOMAIN_MIN 0.0 0.0 0.0
DOMAIN_MAX 1.0 1.0 1.0
LUT_3D_SIZE 5
0.000000 0.000000 0.000000
0.297876 0.015033 0.015033
0.595752 0.030066 0.030066
0.842520 0.042520 0.042520
0.842520 0.042520 0.042520
0.050572 0.333415 0.050572
0.348448 0.348448 0.065605
0.646324 0.363481 0.080638
0.893092 0.375935 0.093092
0.893092 0.375935 0.093092
0.101145 0.666830 0.101145
0.399020 0.681863 0.116178
0.696896 0.696896 0.131211
0.943665 0.709350 0.143665
0.943665 0.709350 0.143665
0.143040 0.943040 0.143040
0.440916 0.958073 0.158073
0.738792 0.973106 0.173106
0.985560 0.985560 0.185560
0.985560 0.985560 0.185560
0.143040 0.943040 0.143040
0.440916 0.958073 0.158073
0.738792 0.973106 0.173106
0.985560 0.985560 0.185560
0.985560 0.985560 0.185560
0.005105 0.005105 0.287948
0.302981 0.020138 0.302981
0.600857 0.035171 0.318014
0.847625 0.047625 0.330468
0.847625 0.047625 0.330468
0.055678 0.338520 0.338520
0.353553 0.353553 0.353553
0.651429 0.368586 0.368586
0.898198 0.381040 0.381040
0.898198 0.381040 0.381040
0.106250 0.671935 0.389093
0.404126 0.686968 0.404126
0.702001 0.702001 0.419159
0.948770 0.714455 0.431613
0.948770 0.714455 0.431613
0.148145 0.948145 0.430988
0.446021 0.963178 0.446021
0.743897 0.978212 0.461054
0.990665 0.990665 0.473508
0.990665 0.990665 0.473508
0.148145 0.948145 0.430988
0.446021 0.963178 0.446021
0.743897 0.978212 0.461054
0.990665 0.990665 0.473508
0.990665 0.990665 0.473508
0.010211 0.010211 0.575896
0.308086 0.025244 0.590929
0.605962 0.040277 0.605962
0.852731 0.052731 0.618416
0.852731 0.052731 0.618416
0.060783 0.343626 0.626468
0.358659 0.358659 0.641501
0.656534 0.373692 0.656534
0.903303 0.386146 0.668988
0.903303 0.386146 0.668988
0.111355 0.677041 0.677041
0.409231 0.692074 0.692074
0.707107 0.707107 0.707107
0.953875 0.719561 0.719561
0.953875 0.719561 0.719561
0.153251 0.953251 0.718936
0.451126 0.968284 0.733969
0.749002 0.983317 0.749002
0.995771 0.995771 0.761456
0.995771 0.995771 0.761456
0.153251 0.953251 0.718936
0.451126 0.968284 0.733969
0.749002 0.983317 0.749002
0.995771 0.995771 0.761456
0.995771 0.995771 0.761456
0.014440 0.014440 0.814440
0.312316 0.029473 0.829473
0.610192 0.044506 0.844506
0.856960 0.056960 0.856960
0.856960 0.056960 0.856960
0.065012 0.347855 0.865012
0.362888 0.362888 0.880045
0.660764 0.377921 0.895078
0.907532 0.390375 0.907532
0.907532 0.390375 0.907532
0.115585 0.681270 0.915585
0.413460 0.696303 0.930618
0.711336 0.711336 0.945651
0.958105 0.723790 0.958105
0.958105 0.723790 0.958105
0.157480 0.957480 0.957480
0.455356 0.972513 0.972513
0.753232 0.987546 0.987546
1.000000 1.000000 1.000000
1.000000 1.000000 1.000000
0.157480 0.957480 0.957480
0.455356 0.972513 0.972513
0.753232 0.987546 0.987546
1.000000 1.000000 1.000000
1.000000 1.000000 1.000000
0.014440 0.014440 0.814440
0.312316 0.029473 0.829473
0.610192 0.044506 0.844506
0.856960 0.056960 0.856960
0.856960 0.056960 0.856960
0.065012 0.347855 0.865012
0.362888 0.362888 0.880045
0.660764 0.377921 0.895078
0.907532 0.390375 0.907532
0.907532 0.390375 0.907532
0.115585 0.681270 0.915585
0.413460 0.696303 0.930618
0.711336 0.711336 0.945651
0.958105 0.723790 0.958105
0.958105 0.723790 0.958105
0.157480 0.957480 0.957480
0.455356 0.972513 0.972513
0.753232 0.987546 0.987546
1.000000 1.000000 1.000000
1.000000 1.000000 1.000000
0.157480 0.957480 0.957480
0.455356 0.972513 0.972513
0.753232 0.987546 0.987546
1.000000 1.000000 1.000000
1.000000 1.000000 1.000000
