editor/scripts/filters/tests/fixtures/sample.cube
TITLE "Sample"
DOMAIN_MIN 0.0 0.0 0.0
DOMAIN_MAX 1.0 1.0 1.0
LUT_3D_SIZE 33
0.000000 0.000000 0.000000
0.037234 0.001879 0.001879
0.074469 0.003758 0.003758
0.111703 0.005637 0.005637
0.148938 0.007517 0.007517
0.186172 0.009396 0.009396
0.223407 0.011275 0.011275
0.260641 0.013154 0.013154
0.297876 0.015033 0.015033
0.335110 0.016912 0.016912
0.372345 0.018791 0.018791
0.409579 0.020670 0.020670
0.446814 0.022550 0.022550
0.484048 0.024429 0.024429
0.521283 0.026308 0.026308
0.558517 0.028187 0.028187
0.595752 0.030066 0.030066
0.632986 0.031945 0.031945
0.670220 0.033824 0.033824
0.707455 0.035704 0.035704
0.744689 0.037583 0.037583
0.781924 0.039462 0.039462
0.819158 0.041341 0.041341
0.842520 0.042520 0.042520
0.842520 0.042520 0.042520
0.842520 0.042520 0.042520
0.842520 0.042520 0.042520
0.842520 0.042520 0.042520
0.842520 0.042520 0.042520
0.842520 0.042520 0.042520
0.842520 0.042520 0.042520
0.842520 0.042520 0.042520
0.842520 0.042520 0.042520
0.006322 0.041677 0.006322
0.043556 0.043556 0.008201
0.080790 0.045435 0.010080
0.118025 0.047314 0.011959
0.155259 0.049193 0.013838
0.192494 0.051073 0.015717
0.229728 0.052952 0.017596
0.266963 0.054831 0.019475
0.304197 0.056710 0.021355
0.341432 0.058589 0.023234
0.378666 0.060468 0.025113
0.415901 0.062347 0.026992
0.453135 0.064227 0.028871
0.490370 0.066106 0.030750
0.527604 0.067985 0.032629
0.564839 0.069864 0.034509
0.602073 0.071743 0.036388
0.639308 0.073622 0.038267
0.676542 0.075501 0.040146
0.713777 0.077380 0.042025
0.751011 0.079260 0.043904
0.788246 0.081139 0.045783
0.825480 0.083018 0.047663
0.848842 0.084197 0.048842
0.848842 0.084197 0.048842
0.848842 0.084197 0.048842
0.848842 0.084197 0.048842
0.848842 0.084197 0.048842
0.848842 0.084197 0.048842
0.848842 0.084197 0.048842
0.848842 0.084197 0.048842
0.848842 0.084197 0.048842
0.848842 0.084197 0.048842
0.012643 0.083354 0.012643
0.049878 0.085233 0.014522
0.087112 0.087112 0.016401
0.124346 0.088991 0.018280
0.161581 0.090870 0.020160
0.198815 0.092749 0.022039
0.236050 0.094629 0.023918
0.273284 0.096508 0.025797
0.310519 0.098387 0.027676
0.347753 0.100266 0.029555
0.384988 0.102145 0.031434
0.422222 0.104024 0.033314
0.459457 0.105903 0.035193
0.496691 0.107783 0.037072
0.533926 0.109662 0.038951
0.571160 0.111541 0.040830
0.608395 0.113420 0.042709
0.645629 0.115299 0.044588
0.682864 0.117178 0.046468
0.720098 0.119057 0.048347
0.757333 0.120936 0.050226
0.794567 0.122816 0.052105
0.831802 0.124695 0.053984
0.855163 0.125874 0.055163
0.855163 0.125874 0.055163
0.855163 0.125874 0.055163
0.855163 0.125874 0.055163
0.855163 0.125874 0.055163
0.855163 0.125874 0.055163
0.855163 0.125874 0.055163
0.855163 0.125874 0.055163
0.855163 0.125874 0.055163
0.855163 0.125874 0.055163
0.018965 0.125031 0.018965
0.056199 0.126910 0.020844
0.093434 0.128789 0.022723
0.130668 0.130668 0.024602
0.167902 0.132547 0.026481
0.205137 0.134426 0.028360
0.242371 0.136305 0.030239
0.279606 0.138185 0.032119
0.316840 0.140064 0.033998
0.354075 0.141943 0.035877
0.391309 0.143822 0.037756
0.428544 0.145701 0.039635
0.465778 0.147580 0.041514
0.503013 0.149459 0.043393
0.540247 0.151339 0.045273
0.577482 0.153218 0.047152
0.614716 0.155097 0.049031
0.651951 0.156976 0.050910
0.689185 0.158855 0.052789
0.726420 0.160734 0.054668
0.763654 0.162613 0.056547
0.800889 0.164492 0.058426
0.838123 0.166372 0.060306
0.861485 0.167551 0.061485
0.861485 0.167551 0.061485
0.861485 0.167551 0.061485
0.861485 0.167551 0.061485
0.861485 0.167551 0.061485
0.861485 0.167551 0.061485
0.861485 0.167551 0.061485
0.861485 0.167551 0.061485
0.861485 0.167551 0.061485
0.861485 0.167551 0.061485
0.025286 0.166707 0.025286
0.062521 0.168587 0.027165
0.099755 0.170466 0.029044
0.136990 0.172345 0.030924
0.174224 0.174224 0.032803
0.211459 0.176103 0.034682
0.248693 0.177982 0.036561
0.285927 0.179861 0.038440
0.323162 0.181741 0.040319
0.360396 0.183620 0.042198
0.397631 0.185499 0.044078
0.434865 0.187378 0.045957
0.472100 0.189257 0.047836
0.509334 0.191136 0.049715
0.546569 0.193015 0.051594
0.583803 0.194895 0.053473
0.621038 0.196774 0.055352
0.658272 0.198653 0.057231
0.695507 0.200532 0.059111
0.732741 0.202411 0.060990
0.769976 0.204290 0.062869
0.807210 0.206169 0.064748
0.844445 0.208048 0.066627
0.867806 0.209227 0.067806
0.867806 0.209227 0.067806
0.867806 0.209227 0.067806
0.867806 0.209227 0.067806
0.867806 0.209227 0.067806
0.867806 0.209227 0.067806
0.867806 0.209227 0.067806
0.867806 0.209227 0.067806
0.867806 0.209227 0.067806
0.867806 0.209227 0.067806
0.031608 0.208384 0.031608
0.068842 0.210264 0.033487
0.106077 0.212143 0.035366
0.143311 0.214022 0.037245
0.180546 0.215901 0.039124
0.217780 0.217780 0.041003
0.255015 0.219659 0.042882
0.292249 0.221538 0.044762
0.329483 0.223417 0.046641
0.366718 0.225297 0.048520
0.403952 0.227176 0.050399
0.441187 0.229055 0.052278
0.478421 0.230934 0.054157
0.515656 0.232813 0.056036
0.552890 0.234692 0.057916
0.590125 0.236571 0.059795
0.627359 0.238451 0.061674
0.664594 0.240330 0.063553
0.701828 0.242209 0.065432
0.739063 0.244088 0.067311
0.776297 0.245967 0.069190
0.813532 0.247846 0.071070
0.850766 0.249725 0.072949
0.874128 0.250904 0.074128
0.874128 0.250904 0.074128
0.874128 0.250904 0.074128
0.874128 0.250904 0.074128
0.874128 0.250904 0.074128
0.874128 0.250904 0.074128
0.874128 0.250904 0.074128
0.874128 0.250904 0.074128
0.874128 0.250904 0.074128
0.874128 0.250904 0.074128
0.037929 0.250061 0.037929
0.075164 0.251940 0.039808
0.112398 0.253819 0.041687
0.149633 0.255699 0.043567
0.186867 0.257578 0.045446
0.224102 0.259457 0.047325
0.261336 0.261336 0.049204
0.298571 0.263215 0.051083
0.335805 0.265094 0.052962
0.373039 0.266973 0.054841
0.410274 0.268853 0.056721
0.447508 0.270732 0.058600
0.484743 0.272611 0.060479
0.521977 0.274490 0.062358
0.559212 0.276369 0.064237
0.596446 0.278248 0.066116
0.633681 0.280127 0.067995
0.670915 0.282007 0.069875
0.708150 0.283886 0.071754
0.745384 0.285765 0.073633
0.782619 0.287644 0.075512
0.819853 0.289523 0.077391
0.857088 0.291402 0.079270
0.880449 0.292581 0.080449
0.880449 0.292581 0.080449
0.880449 0.292581 0.080449
0.880449 0.292581 0.080449
0.880449 0.292581 0.080449
0.880449 0.292581 0.080449
0.880449 0.292581 0.080449
0.880449 0.292581 0.080449
0.880449 0.292581 0.080449
0.880449 0.292581 0.080449
0.044251 0.291738 0.044251
0.081485 0.293617 0.046130
0.118720 0.295496 0.048009
0.155954 0.297376 0.049888
0.193189 0.299255 0.051767
0.230423 0.301134 0.053646
0.267658 0.303013 0.055526
0.304892 0.304892 0.057405
0.342127 0.306771 0.059284
0.379361 0.308650 0.061163
0.416595 0.310529 0.063042
0.453830 0.312409 0.064921
0.491064 0.314288 0.066800
0.528299 0.316167 0.068680
0.565533 0.318046 0.070559
0.602768 0.319925 0.072438
0.640002 0.321804 0.074317
0.677237 0.323683 0.076196
0.714471 0.325563 0.078075
0.751706 0.327442 0.079954
0.788940 0.329321 0.081833
0.826175 0.331200 0.083713
0.863409 0.333079 0.085592
0.886771 0.334258 0.086771
0.886771 0.334258 0.086771
0.886771 0.334258 0.086771
0.886771 0.334258 0.086771
0.886771 0.334258 0.086771
0.886771 0.334258 0.086771
0.886771 0.334258 0.086771
0.886771 0.334258 0.086771
0.886771 0.334258 0.086771
0.886771 0.334258 0.086771
0.050572 0.333415 0.050572
0.087807 0.335294 0.052451
0.125041 0.337173 0.054331
0.162276 0.339052 0.056210
0.199510 0.340932 0.058089
0.236745 0.342811 0.059968
0.273979 0.344690 0.061847
0.311214 0.346569 0.063726
0.348448 0.348448 0.065605
0.385683 0.350327 0.067484
0.422917 0.352206 0.069364
0.460151 0.354085 0.071243
0.497386 0.355965 0.073122
0.534620 0.357844 0.075001
0.571855 0.359723 0.076880
0.609089 0.361602 0.078759
0.646324 0.363481 0.080638
0.683558 0.365360 0.082518
0.720793 0.367239 0.084397
0.758027 0.369119 0.086276
0.795262 0.370998 0.088155
0.832496 0.372877 0.090034
0.869731 0.374756 0.091913
0.893092 0.375935 0.093092
0.893092 0.375935 0.093092
0.893092 0.375935 0.093092
0.893092 0.375935 0.093092
0.893092 0.375935 0.093092
0.893092 0.375935 0.093092
0.893092 0.375935 0.093092
0.893092 0.375935 0.093092
0.893092 0.375935 0.093092
0.893092 0.375935 0.093092
0.056894 0.375092 0.056894
0.094128 0.376971 0.058773
0.131363 0.378850 0.060652
0.168597 0.380729 0.062531
0.205832 0.382608 0.064410
0.243066 0.384488 0.066289
0.280301 0.386367 0.068169
0.317535 0.388246 0.070048
0.354770 0.390125 0.071927
0.392004 0.392004 0.073806
0.429239 0.393883 0.075685
0.466473 0.395762 0.077564
0.503707 0.397641 0.079443
0.540942 0.399521 0.081323
0.578176 0.401400 0.083202
0.615411 0.403279 0.085081
0.652645 0.405158 0.086960
0.689880 0.407037 0.088839
0.727114 0.408916 0.090718
0.764349 0.410795 0.092597
0.801583 0.412675 0.094477
0.838818 0.414554 0.096356
0.876052 0.416433 0.098235
0.899414 0.417612 0.099414
0.899414 0.417612 0.099414
0.899414 0.417612 0.099414
0.899414 0.417612 0.099414
0.899414 0.417612 0.099414
0.899414 0.417612 0.099414
0.899414 0.417612 0.099414
0.899414 0.417612 0.099414
0.899414 0.417612 0.099414
0.899414 0.417612 0.099414
0.063215 0.416769 0.063215
0.100450 0.418648 0.065094
0.137684 0.420527 0.066974
0.174919 0.422406 0.068853
0.212153 0.424285 0.070732
0.249388 0.426164 0.072611
0.286622 0.428044 0.074490
0.323857 0.429923 0.076369
0.361091 0.431802 0.078248
0.398326 0.433681 0.080128
0.435560 0.435560 0.082007
0.472795 0.437439 0.083886
0.510029 0.439318 0.085765
0.547264 0.441198 0.087644
0.584498 0.443077 0.089523
0.621732 0.444956 0.091402
0.658967 0.446835 0.093282
0.696201 0.448714 0.095161
0.733436 0.450593 0.097040
0.770670 0.452472 0.098919
0.807905 0.454351 0.100798
0.845139 0.456231 0.102677
0.882374 0.458110 0.104556
0.905735 0.459289 0.105735
0.905735 0.459289 0.105735
0.905735 0.459289 0.105735
0.905735 0.459289 0.105735
0.905735 0.459289 0.105735
0.905735 0.459289 0.105735
0.905735 0.459289 0.105735
0.905735 0.459289 0.105735
0.905735 0.459289 0.105735
0.905735 0.459289 0.105735
0.069537 0.458446 0.069537
0.106771 0.460325 0.071416
0.144006 0.462204 0.073295
0.181240 0.464083 0.075174
0.218475 0.465962 0.077053
0.255709 0.467841 0.078933
0.292944 0.469720 0.080812
0.330178 0.471600 0.082691
0.367413 0.473479 0.084570
0.404647 0.475358 0.086449
0.441882 0.477237 0.088328
0.479116 0.479116 0.090207
0.516351 0.480995 0.092087
0.553585 0.482874 0.093966
0.590820 0.484754 0.095845
0.628054 0.486633 0.097724
0.665288 0.488512 0.099603
0.702523 0.490391 0.101482
0.739757 0.492270 0.103361
0.776992 0.494149 0.105240
0.814226 0.496028 0.107120
0.851461 0.497907 0.108999
0.888695 0.499787 0.110878
0.912057 0.500966 0.112057
0.912057 0.500966 0.112057
0.912057 0.500966 0.112057
0.912057 0.500966 0.112057
0.912057 0.500966 0.112057
0.912057 0.500966 0.112057
0.912057 0.500966 0.112057
0.912057 0.500966 0.112057
0.912057 0.500966 0.112057
0.912057 0.500966 0.112057
0.075858 0.500122 0.075858
0.113093 0.502002 0.077738
0.150327 0.503881 0.079617
0.187562 0.505760 0.081496
0.224796 0.507639 0.083375
0.262031 0.509518 0.085254
0.299265 0.511397 0.087133
0.336500 0.513276 0.089012
0.373734 0.515156 0.090892
0.410969 0.517035 0.092771
0.448203 0.518914 0.094650
0.485438 0.520793 0.096529
0.522672 0.522672 0.098408
0.559907 0.524551 0.100287
0.597141 0.526430 0.102166
0.634376 0.528310 0.104045
0.671610 0.530189 0.105925
0.708844 0.532068 0.107804
0.746079 0.533947 0.109683
0.783313 0.535826 0.111562
0.820548 0.537705 0.113441
0.857782 0.539584 0.115320
0.895017 0.541463 0.117199
0.918378 0.542642 0.118378
0.918378 0.542642 0.118378
0.918378 0.542642 0.118378
0.918378 0.542642 0.118378
0.918378 0.542642 0.118378
0.918378 0.542642 0.118378
0.918378 0.542642 0.118378
0.918378 0.542642 0.118378
0.918378 0.542642 0.118378
0.918378 0.542642 0.118378
0.082180 0.541799 0.082180
0.119414 0.543678 0.084059
0.156649 0.545558 0.085938
0.193883 0.547437 0.087817
0.231118 0.549316 0.089696
0.268352 0.551195 0.091576
0.305587 0.553074 0.093455
0.342821 0.554953 0.095334
0.380056 0.556832 0.097213
0.417290 0.558712 0.099092
0.454525 0.560591 0.100971
0.491759 0.562470 0.102850
0.528994 0.564349 0.104730
0.566228 0.566228 0.106609
0.603463 0.568107 0.108488
0.640697 0.569986 0.110367
0.677932 0.571865 0.112246
0.715166 0.573745 0.114125
0.752400 0.575624 0.116004
0.789635 0.577503 0.117884
0.826869 0.579382 0.119763
0.864104 0.581261 0.121642
0.901338 0.583140 0.123521
0.924700 0.584319 0.124700
0.924700 0.584319 0.124700
0.924700 0.584319 0.124700
0.924700 0.584319 0.124700
0.924700 0.584319 0.124700
0.924700 0.584319 0.124700
0.924700 0.584319 0.124700
0.924700 0.584319 0.124700
0.924700 0.584319 0.124700
0.924700 0.584319 0.124700
0.088501 0.583476 0.088501
0.125736 0.585355 0.090381
0.162970 0.587234 0.092260
0.200205 0.589114 0.094139
0.237439 0.590993 0.096018
0.274674 0.592872 0.097897
0.311908 0.594751 0.099776
0.349143 0.596630 0.101655
0.386377 0.598509 0.103535
0.423612 0.600388 0.105414
0.460846 0.602268 0.107293
0.498081 0.604147 0.109172
0.535315 0.606026 0.111051
0.572550 0.607905 0.112930
0.609784 0.609784 0.114809
0.647019 0.611663 0.116689
0.684253 0.613542 0.118568
0.721488 0.615422 0.120447
0.758722 0.617301 0.122326
0.795957 0.619180 0.124205
0.833191 0.621059 0.126084
0.870425 0.622938 0.127963
0.907660 0.624817 0.129842
0.931021 0.625996 0.131021
0.931021 0.625996 0.131021
0.931021 0.625996 0.131021
0.931021 0.625996 0.131021
0.931021 0.625996 0.131021
0.931021 0.625996 0.131021
0.931021 0.625996 0.131021
0.931021 0.625996 0.131021
0.931021 0.625996 0.131021
0.931021 0.625996 0.131021
0.094823 0.625153 0.094823
0.132057 0.627032 0.096702
0.169292 0.628911 0.098581
0.206526 0.630791 0.100460
0.243761 0.632670 0.102340
0.280995 0.634549 0.104219
0.318230 0.636428 0.106098
0.355464 0.638307 0.107977
0.392699 0.640186 0.109856
0.429933 0.642065 0.111735
0.467168 0.643944 0.113614
0.504402 0.645824 0.115494
0.541637 0.647703 0.117373
0.578871 0.649582 0.119252
0.616106 0.651461 0.121131
0.653340 0.653340 0.123010
0.690575 0.655219 0.124889
0.727809 0.657098 0.126768
0.765044 0.658978 0.128647
0.802278 0.660857 0.130527
0.839513 0.662736 0.132406
0.876747 0.664615 0.134285
0.913981 0.666494 0.136164
0.937343 0.667673 0.137343
0.937343 0.667673 0.137343
0.937343 0.667673 0.137343
0.937343 0.667673 0.137343
0.937343 0.667673 0.137343
0.937343 0.667673 0.137343
0.937343 0.667673 0.137343
0.937343 0.667673 0.137343
0.937343 0.667673 0.137343
0.937343 0.667673 0.137343
0.101145 0.666830 0.101145
0.138379 0.668709 0.103024
0.175613 0.670588 0.104903
0.212848 0.672467 0.106782
0.250082 0.674347 0.108661
0.287317 0.676226 0.110540
0.324551 0.678105 0.112419
0.361786 0.679984 0.114298
0.399020 0.681863 0.116178
0.436255 0.683742 0.118057
0.473489 0.685621 0.119936
0.510724 0.687500 0.121815
0.547958 0.689380 0.123694
0.585193 0.691259 0.125573
0.622427 0.693138 0.127452
0.659662 0.695017 0.129332
0.696896 0.696896 0.131211
0.734131 0.698775 0.133090
0.771365 0.700654 0.134969
0.808600 0.702534 0.136848
0.845834 0.704413 0.138727
0.883069 0.706292 0.140606
0.920303 0.708171 0.142486
0.943665 0.709350 0.143665
0.943665 0.709350 0.143665
0.943665 0.709350 0.143665
0.943665 0.709350 0.143665
0.943665 0.709350 0.143665
0.943665 0.709350 0.143665
0.943665 0.709350 0.143665
0.943665 0.709350 0.143665
0.943665 0.709350 0.143665
0.943665 0.709350 0.143665
0.107466 0.708507 0.107466
0.144701 0.710386 0.109345
0.181935 0.712265 0.111224
0.219169 0.714144 0.113103
0.256404 0.716023 0.114983
0.293638 0.717903 0.116862
0.330873 0.719782 0.118741
0.368107 0.721661 0.120620
0.405342 0.723540 0.122499
0.442576 0.725419 0.124378
0.479811 0.727298 0.126257
0.517045 0.729177 0.128137
0.554280 0.731056 0.130016
0.591514 0.732936 0.131895
0.628749 0.734815 0.133774
0.665983 0.736694 0.135653
0.703218 0.738573 0.137532
0.740452 0.740452 0.139411
0.777687 0.742331 0.141291
0.814921 0.744210 0.143170
0.852156 0.746090 0.145049
0.889390 0.747969 0.146928
0.926625 0.749848 0.148807
0.949986 0.751027 0.149986
0.949986 0.751027 0.149986
0.949986 0.751027 0.149986
0.949986 0.751027 0.149986
0.949986 0.751027 0.149986
0.949986 0.751027 0.149986
0.949986 0.751027 0.149986
0.949986 0.751027 0.149986
0.949986 0.751027 0.149986
0.949986 0.751027 0.149986
0.113788 0.750184 0.113788
0.151022 0.752063 0.115667
0.188257 0.753942 0.117546
0.225491 0.755821 0.119425
0.262726 0.757700 0.121304
0.299960 0.759579 0.123183
0.337194 0.761459 0.125062
0.374429 0.763338 0.126942
0.411663 0.765217 0.128821
0.448898 0.767096 0.130700
0.486132 0.768975 0.132579
0.523367 0.770854 0.134458
0.560601 0.772733 0.136337
0.597836 0.774612 0.138216
0.635070 0.776492 0.140096
0.672305 0.778371 0.141975
0.709539 0.780250 0.143854
0.746774 0.782129 0.145733
0.784008 0.784008 0.147612
0.821243 0.785887 0.149491
0.858477 0.787766 0.151370
0.895712 0.789646 0.153249
0.932946 0.791525 0.155129
0.956308 0.792704 0.156308
0.956308 0.792704 0.156308
0.956308 0.792704 0.156308
0.956308 0.792704 0.156308
0.956308 0.792704 0.156308
0.956308 0.792704 0.156308
0.956308 0.792704 0.156308
0.956308 0.792704 0.156308
0.956308 0.792704 0.156308
0.956308 0.792704 0.156308
0.120109 0.791861 0.120109
0.157344 0.793740 0.121988
0.194578 0.795619 0.123867
0.231813 0.797498 0.125747
0.269047 0.799377 0.127626
0.306282 0.801256 0.129505
0.343516 0.803135 0.131384
0.380751 0.805015 0.133263
0.417985 0.806894 0.135142
0.455219 0.808773 0.137021
0.492454 0.810652 0.138901
0.529688 0.812531 0.140780
0.566923 0.814410 0.142659
0.604157 0.816289 0.144538
0.641392 0.818169 0.146417
0.678626 0.820048 0.148296
0.715861 0.821927 0.150175
0.753095 0.823806 0.152054
0.790330 0.825685 0.153934
0.827564 0.827564 0.155813
0.864799 0.829443 0.157692
0.902033 0.831322 0.159571
0.939268 0.833202 0.161450
0.962629 0.834381 0.162629
0.962629 0.834381 0.162629
0.962629 0.834381 0.162629
0.962629 0.834381 0.162629
0.962629 0.834381 0.162629
0.962629 0.834381 0.162629
0.962629 0.834381 0.162629
0.962629 0.834381 0.162629
0.962629 0.834381 0.162629
0.962629 0.834381 0.162629
0.126431 0.833537 0.126431
0.163665 0.835417 0.128310
0.200900 0.837296 0.130189
0.238134 0.839175 0.132068
0.275369 0.841054 0.133947
0.312603 0.842933 0.135826
0.349838 0.844812 0.137706
0.387072 0.846691 0.139585
0.424306 0.848571 0.141464
0.461541 0.850450 0.143343
0.498775 0.852329 0.145222
0.536010 0.854208 0.147101
0.573244 0.856087 0.148980
0.610479 0.857966 0.150859
0.647713 0.859845 0.152739
0.684948 0.861724 0.154618
0.722182 0.863604 0.156497
0.759417 0.865483 0.158376
0.796651 0.867362 0.160255
0.833886 0.869241 0.162134
0.871120 0.871120 0.164013
0.908355 0.872999 0.165893
0.945589 0.874878 0.167772
0.968951 0.876057 0.168951
0.968951 0.876057 0.168951
0.968951 0.876057 0.168951
0.968951 0.876057 0.168951
0.968951 0.876057 0.168951
0.968951 0.876057 0.168951
0.968951 0.876057 0.168951
0.968951 0.876057 0.168951
0.968951 0.876057 0.168951
0.968951 0.876057 0.168951
0.132752 0.875214 0.132752
0.169987 0.877093 0.134631
0.207221 0.878973 0.136510
0.244456 0.880852 0.138390
0.281690 0.882731 0.140269
0.318925 0.884610 0.142148
0.356159 0.886489 0.144027
0.393394 0.888368 0.145906
0.430628 0.890247 0.147785
0.467862 0.892127 0.149664
0.505097 0.894006 0.151544
0.542331 0.895885 0.153423
0.579566 0.897764 0.155302
0.616800 0.899643 0.157181
0.654035 0.901522 0.159060
0.691269 0.903401 0.160939
0.728504 0.905281 0.162818
0.765738 0.907160 0.164698
0.802973 0.909039 0.166577
0.840207 0.910918 0.168456
0.877442 0.912797 0.170335
0.914676 0.914676 0.172214
0.951911 0.916555 0.174093
0.975272 0.917734 0.175272
0.975272 0.917734 0.175272
0.975272 0.917734 0.175272
0.975272 0.917734 0.175272
0.975272 0.917734 0.175272
0.975272 0.917734 0.175272
0.975272 0.917734 0.175272
0.975272 0.917734 0.175272
0.975272 0.917734 0.175272
0.975272 0.917734 0.175272
0.139074 0.916891 0.139074
0.176308 0.918770 0.140953
0.213543 0.920649 0.142832
0.250777 0.922529 0.144711
0.288012 0.924408 0.146590
0.325246 0.926287 0.148469
0.362481 0.928166 0.150349
0.399715 0.930045 0.152228
0.436950 0.931924 0.154107
0.474184 0.933803 0.155986
0.511419 0.935683 0.157865
0.548653 0.937562 0.159744
0.585887 0.939441 0.161623
0.623122 0.941320 0.163503
0.660356 0.943199 0.165382
0.697591 0.945078 0.167261
0.734825 0.946957 0.169140
0.772060 0.948837 0.171019
0.809294 0.950716 0.172898
0.846529 0.952595 0.174777
0.883763 0.954474 0.176656
0.920998 0.956353 0.178536
0.958232 0.958232 0.180415
0.981594 0.959411 0.181594
0.981594 0.959411 0.181594
0.981594 0.959411 0.181594
0.981594 0.959411 0.181594
0.981594 0.959411 0.181594
0.981594 0.959411 0.181594
0.981594 0.959411 0.181594
0.981594 0.959411 0.181594
0.981594 0.959411 0.181594
0.981594 0.959411 0.181594
0.143040 0.943040 0.143040
0.180274 0.944919 0.144919
0.217509 0.946798 0.146798
0.254743 0.948677 0.148677
0.291978 0.950557 0.150557
0.329212 0.952436 0.152436
0.366447 0.954315 0.154315
0.403681 0.956194 0.156194
0.440916 0.958073 0.158073
0.478150 0.959952 0.159952
0.515385 0.961831 0.161831
0.552619 0.963710 0.163710
0.589854 0.965590 0.165590
0.627088 0.967469 0.167469
0.664323 0.969348 0.169348
0.701557 0.971227 0.171227
0.738792 0.973106 0.173106
0.776026 0.974985 0.174985
0.813261 0.976864 0.176864
0.850495 0.978744 0.178744
0.887730 0.980623 0.180623
0.924964 0.982502 0.182502
0.962198 0.984381 0.184381
0.985560 0.985560 0.185560
0.985560 0.985560 0.185560
0.985560 0.985560 0.185560
0.985560 0.985560 0.185560
0.985560 0.985560 0.185560
0.985560 0.985560 0.185560
0.985560 0.985560 0.185560
0.985560 0.985560 0.185560
0.985560 0.985560 0.185560
0.985560 0.985560 0.185560
0.143040 0.943040 0.143040
0.180274 0.944919 0.144919
0.217509 0.946798 0.146798
0.254743 0.948677 0.148677
0.291978 0.950557 0.150557
0.329212 0.952436 0.152436
0.366447 0.954315 0.154315
0.403681 0.956194 0.156194
0.440916 0.958073 0.158073
0.478150 0.959952 0.159952
0.515385 0.961831 0.161831
0.552619 0.963710 0.163710
0.589854 0.965590 0.165590
0.627088 0.967469 0.167469
0.664323 0.969348 0.169348
0.701557 0.971227 0.171227
0.738792 0.973106 0.173106
0.776026 0.974985 0.174985
0.813261 0.976864 0.176864
0.850495 0.978744 0.178744
0.887730 0.980623 0.180623
0.924964 0.982502 0.182502
0.962198 0.984381 0.184381
0.985560 0.985560 0.185560
0.985560 0.985560 0.185560
0.985560 0.985560 0.185560
0.985560 0.985560 0.185560
0.985560 0.985560 0.185560
0.985560 0.985560 0.185560
0.985560 0.985560 0.185560
0.985560 0.985560 0.185560
0.985560 0.985560 0.185560
0.985560 0.985560 0.185560
0.143040 0.943040 0.143040
0.180274 0.944919 0.144919
0.217509 0.946798 0.146798
0.254743 0.948677 0.148677
0.291978 0.950557 0.150557
0.329212 0.952436 0.152436
0.366447 0.954315 0.154315
0.403681 0.956194 0.156194
0.440916 0.958073 0.158073
0.478150 0.959952 0.159952
0.515385 0.961831 0.161831
0.552619 0.963710 0.163710
0.589854 0.965590 0.165590
0.627088 0.967469 0.167469
0.664323 0.969348 0.169348
0.701557 0.971227 0.171227
0.738792 0.973106 0.173106
0.776026 0.974985 0.174985
0.813261 0.976864 0.176864
0.850495 0.978744 0.178744
0.887730 0.980623 0.180623
0.924964 0.982502 0.182502
0.962198 0.984381 0.184381
0.985560 0.985560 0.185560
0.985560 0.985560 0.185560
0.985560 0.985560 0.185560
0.985560 0.985560 0.185560
0.985560 0.985560 0.185560
0.985560 0.985560 0.185560
0.985560 0.985560 0.185560
0.985560 0.985560 0.185560
0.985560 0.985560 0.185560
0.985560 0.985560 0.185560
0.143040 0.943040 0.143040
0.180274 0.944919 0.144919
0.217509 0.946798 0.146798
0.254743 0.948677 0.148677
0.291978 0.950557 0.150557
0.329212 0.952436 0.152436
0.366447 0.954315 0.154315
0.403681 0.956194 0.156194
0.440916 0.958073 0.158073
0.478150 0.959952 0.159952
0.515385 0.961831 0.161831
0.552619 0.963710 0.163710
0.589854 0.965590 0.165590
0.627088 0.967469 0.167469
0.664323 0.969348 0.169348
0.701557 0.971227 0.171227
0.738792 0.973106 0.173106
0.776026 0.974985 0.174985
0.813261 0.976864 0.176864
0.850495 0.978744 0.178744
0.887730 0.980623 0.180623
0.924964 0.982502 0.182502
0.962198 0.984381 0.184381
0.985560 0.985560 0.185560
0.985560 0.985560 0.185560
0.985560 0.985560 0.185560
0.985560 0.985560 0.185560
0.985560 0.985560 0.185560
